X:60
T:Jigs simple chords 219
M:3/4
L:1/8
K:G
[dG,B,D]e dg dB | [c2D,2F,2A,2C2] BA2F | [G2G,2B,2D2] AB2c | [d3D,3F,3A,3C3]A3 | [dG,B,D]e dg bg |
[f2C,2E,2G,2] ec2e | [dG,B,D]e de2f | [g3G,3B,3D3]G3 | [BG,B,D]A BB cd |
[e3C,3E,3G,3]E3 | [AD,F,A,C]B AA Bc | [d3G,3B,3D3]D3 | [dD,F,A,C]e db gd |
[f2C,2E,2G,2] ec2e | [dG,B,D]e de2f | [g3G,3B,3D3]G3 |


